src/images/landfill.svg

<svg width="117" height="154" viewBox="0 0 117 154" fill="none" xmlns="http://www.w3.org/2000/svg">
<path d="M7.6113 54.6824L16.0846 138.54C16.554 142.084 33.6852 153.738 58.4893 153.753C83.3088 153.738 100.44 142.084 100.902 138.54L109.383 54.6824C96.4227 61.9242 77.052 65.3452 58.4893 65.3452C39.942 65.3452 20.5636 61.9242 7.6113 54.6824ZM82.8701 11.6084L76.2593 4.29741C73.7042 0.66114 70.9337 0 65.5388 0H51.4475C46.0603 0 43.2821 0.66114 40.7347 4.29741L34.1239 11.6084C14.3453 15.0601 0 24.2162 0 30.9736V32.2805C0 44.1734 26.1894 53.8137 58.4893 53.8137C90.7969 53.8137 116.986 44.1734 116.986 32.2805V30.9736C116.986 24.2162 102.649 15.0601 82.8701 11.6084ZM74.4199 33.3645L66.1853 23.063H50.7933L42.5741 33.3645H29.4909C29.4909 33.3645 43.8208 16.2902 45.7371 13.9762C47.1993 12.208 48.6923 11.5315 50.6317 11.5315H66.3546C68.3017 11.5315 69.7947 12.208 71.2569 13.9762C73.1655 16.2902 87.5031 33.3645 87.5031 33.3645H74.4199Z" fill="#404040"/>
</svg>

<svg xmlns="http://www.w3.org/2000/svg" width="117" height="154" fill="none"><path fill="#404040" d="M7.6 54.7l8.5 83.8c.5 3.6 17.6 15.2 42.4 15.3 24.8 0 42-11.7 42.4-15.3l8.5-83.8c-13 7.2-32.3 10.6-51 10.6C40 65.3 20.7 62 7.7 54.7zm75.3-43l-6.6-7.4C73.7.7 70.9 0 65.5 0h-14C46 0 43.2.7 40.6 4.3l-6.6 7.3C14.3 15.1 0 24.2 0 31v1.3c0 11.9 26.2 21.5 58.5 21.5S117 44.2 117 32.3V31c0-6.8-14.4-16-34.1-19.4zm-8.5 21.7L66.2 23H50.8l-8.2 10.3H29.5L45.7 14c1.5-1.8 3-2.5 5-2.5h15.7c1.9 0 3.4.7 4.9 2.5l16.2 19.4h-13z"/></svg>
